packages/tokens/icons/catering/size24Px.svg

<svg viewBox="0 0 24 24" fill="none" xmlns="http://www.w3.org/2000/svg" width="1em" height="1em"><path d="M4 18.5L4.72361 19.9472C4.893 20.286 5.23926 20.5 5.61803 20.5L18.382 20.5C18.7607 20.5 19.107 20.286 19.2764 19.9472L20 18.5" stroke="currentColor" stroke-linecap="round"/><path d="M2.5 18.5L21.5 18.5" stroke="currentColor" stroke-linecap="round"/><path d="M19.5 18C19.5 13.6881 15.7429 11 12 11C8.25709 11 4.5 13.6881 4.5 18" stroke="currentColor"/><path d="M13 9C13 9.29769 12.8722 9.70095 12.6481 10.0282C12.4158 10.3675 12.1723 10.5 12 10.5C11.8277 10.5 11.5842 10.3675 11.3519 10.0282C11.1278 9.70095 11 9.29769 11 9C11 8.86095 11.0278 8.78462 11.0518 8.74268C11.0747 8.70268 11.1105 8.66514 11.1767 8.62938C11.3317 8.54577 11.5986 8.5 12 8.5C12.4014 8.5 12.6683 8.54577 12.8233 8.62938C12.8895 8.66514 12.9253 8.70268 12.9482 8.74268C12.9722 8.78462 13 8.86095 13 9Z" stroke="currentColor"/><path d="M12 6.5C11.3333 6.05556 11.3333 5.61111 12 5.16667C12.6667 4.72222 12.6667 4.27778 12 3.83333C11.3333 3.38889 11.3333 2.94444 12 2.5" stroke="currentColor" stroke-linecap="round"/><path d="M16 8.5C15.3333 8.05556 15.3333 7.61111 16 7.16667C16.6667 6.72222 16.6667 6.27778 16 5.83333C15.3333 5.38889 15.3333 4.94444 16 4.5" stroke="currentColor" stroke-linecap="round"/><path d="M8.5 8.33338C7.83333 7.88893 7.83333 7.44449 8.5 7.00005C9.16667 6.5556 9.16667 6.11116 8.5 5.66671C7.83333 5.22227 7.83333 4.77782 8.5 4.33338" stroke="currentColor" stroke-linecap="round"/></svg>

<svg xmlns="http://www.w3.org/2000/svg" fill="none" viewBox="0 0 24 24" width="1em" height="1em"><path stroke="currentColor" stroke-linecap="round" d="m4 18.5.724 1.447a1 1 0 0 0 .894.553h12.764a1 1 0 0 0 .894-.553L20 18.5m-17.5 0h19"/><path stroke="currentColor" d="M19.5 18c0-4.312-3.757-7-7.5-7s-7.5 2.688-7.5 7M13 9c0 .298-.128.701-.352 1.028-.232.34-.476.472-.648.472-.172 0-.416-.133-.648-.472C11.128 9.701 11 9.298 11 9a.51.51 0 0 1 .052-.257.295.295 0 0 1 .125-.114c.155-.083.422-.129.823-.129.401 0 .668.046.823.13a.295.295 0 0 1 .125.113A.511.511 0 0 1 13 9Z"/><path stroke="currentColor" stroke-linecap="round" d="M12 6.5c-.667-.444-.667-.889 0-1.333.667-.445.667-.89 0-1.334-.667-.444-.667-.889 0-1.333m4 6c-.667-.444-.667-.889 0-1.333.667-.445.667-.89 0-1.334-.667-.444-.667-.889 0-1.333M8.5 8.333c-.667-.444-.667-.889 0-1.333.667-.444.667-.889 0-1.333-.667-.445-.667-.89 0-1.334"/></svg>
